symbolic/64x64/apps/ring.svg

<svg xmlns="http://www.w3.org/2000/svg" width="64" height="64" version="1.1">
 <path style="opacity:0.2" d="m 10.381747,15.569228 -4.261686,7.273576 c -2.8411234,4.849052 45.657054,32.437004 48.498174,27.58796 l 4.261698,-7.273571 C 61.721128,38.308183 13.222881,10.720187 10.381758,15.569232"/>
 <path style="fill:#009688" d="m 10.381747,14.56923 -4.261686,7.273576 c -2.8411234,4.849052 45.657054,32.437004 48.498174,27.58796 l 4.261698,-7.273571 C 61.721128,37.308185 13.222881,9.7201893 10.381758,14.569234"/>
 <path style="fill:#ffffff;opacity:0.1" d="M 12.304688 14.015625 C 11.315688 13.945504 10.647215 14.113761 10.380859 14.568359 L 6.1191406 21.84375 C 5.9613524 22.113053 5.9709841 22.455346 6.1132812 22.855469 C 6.1154433 22.851643 6.1169156 22.847547 6.1191406 22.84375 L 10.380859 15.568359 C 13.064194 10.988617 56.466877 35.340104 58.886719 42.144531 C 61.38657 37.721695 21.856752 14.692873 12.304688 14.015625 z"/>
 <path style="opacity:0.2" d="m 54.618253,15.569228 4.261686,7.273576 c 2.841123,4.849052 -45.657054,32.437004 -48.498174,27.58796 L 6.1200668,43.157193 C 3.2788718,38.308183 51.777119,10.720187 54.618242,15.569232"/>
 <path style="fill:#601ab8" d="m 54.618253,14.56923 4.261686,7.273576 C 61.721062,26.691858 13.222885,54.27981 10.381765,49.430766 L 6.1200668,42.157195 C 3.2788718,37.308185 51.777119,9.7201893 54.618242,14.569234"/>
 <path style="fill:#ffffff;opacity:0.1" d="M 52.695312 14.015625 C 43.143248 14.692873 3.6134298 37.721695 6.1132812 42.144531 C 8.5331227 35.340104 51.935806 10.988617 54.619141 15.568359 L 58.880859 22.84375 C 58.883084 22.847547 58.884557 22.851643 58.886719 22.855469 C 59.029016 22.455346 59.038648 22.113053 58.880859 21.84375 L 54.619141 14.568359 C 54.352785 14.113761 53.684312 13.945504 52.695312 14.015625 z"/>
 <path style="opacity:0.2" d="M 36.688023,5.0183579 28.188526,4.9999997 C 22.522193,4.9877637 22.645651,60.969391 28.311974,60.981628 l 8.499499,0.01837 C 42.477805,61.012318 42.35435,5.0306087 36.688025,5.0183689"/>
 <path style="fill:#2176f3" d="M 36.688023,4.0183599 28.188526,4.0000017 C 22.522193,3.9877657 22.645651,59.969393 28.311974,59.98163 L 36.811473,60 C 42.477805,60.01232 42.35435,4.0306107 36.688025,4.0183709"/>
 <path style="fill:#ffffff;opacity:0.2" d="M 28.189453 4 C 25.328332 3.9938216 23.946464 18.262346 24.005859 32.394531 C 24.014754 18.598941 25.396166 4.9939681 28.189453 5 L 36.6875 5.0175781 C 39.492707 5.0236376 40.935906 18.749435 40.994141 32.605469 C 41.00329 18.415953 39.560542 4.0237842 36.6875 4.0175781 L 28.189453 4 z"/>
</svg>

<svg xmlns="http://www.w3.org/2000/svg" width="64" height="64"><path style="opacity:.2" d="M10.382 15.57 6.12 22.842C3.28 27.692 51.777 55.28 54.618 50.43l4.262-7.274C61.72 38.308 13.223 10.72 10.382 15.57"/><path style="fill:#009688" d="M10.382 14.57 6.12 21.842C3.28 26.692 51.777 54.28 54.618 49.43l4.262-7.274C61.72 37.308 13.223 9.72 10.382 14.57"/><path style="fill:#fff;opacity:.1" d="M12.305 14.016c-.99-.07-1.658.098-1.924.552l-4.262 7.276c-.158.27-.148.611-.006 1.011l.006-.011 4.262-7.276c2.683-4.58 46.086 19.772 48.506 26.577 2.5-4.423-37.03-27.452-46.582-28.13z"/><path style="opacity:.2" d="m54.618 15.57 4.262 7.273C61.72 27.692 13.223 55.28 10.382 50.43L6.12 43.157C3.28 38.308 51.777 10.72 54.618 15.57"/><path style="fill:#601ab8" d="m54.618 14.57 4.262 7.273C61.72 26.692 13.223 54.28 10.382 49.43L6.12 42.157C3.28 37.308 51.777 9.72 54.618 14.57"/><path style="fill:#fff;opacity:.1" d="M52.695 14.016c-9.552.677-49.082 23.706-46.582 28.129 2.42-6.805 45.823-31.156 48.506-26.577l4.262 7.276.006.011c.142-.4.152-.742-.006-1.011l-4.262-7.276c-.266-.454-.935-.622-1.924-.552z"/><path style="opacity:.2" d="M36.688 5.018 28.188 5c-5.666-.012-5.542 55.97.124 55.982l8.5.018c5.666.012 5.542-55.97-.124-55.982"/><path style="fill:#2176f3" d="M36.688 4.018 28.188 4c-5.666-.012-5.542 55.97.124 55.982l8.5.018c5.666.012 5.542-55.97-.124-55.982"/><path style="fill:#fff;opacity:.2" d="M28.19 4c-2.862-.006-4.244 14.262-4.184 28.395.009-13.796 1.39-27.401 4.183-27.395l8.498.018c2.806.006 4.249 13.731 4.307 27.587.01-14.189-1.433-28.581-4.306-28.587L28.188 4z"/></svg>
